X:934
T:Shirley's Jig
C:Colin Hume, 1980
L:1/8
M:6/8
R:Jig
S:Colin Hume's website,  colinhume.com  - chords can also be printed below the stave.
Q:3/8=120
K:G
V:1
%%MIDI control 10 0   Left speaker
%%MIDI program 73     Flute
%%MIDI chordprog 46   Orchestral Harp
%%MIDI bassprog 46    Orchestral Harp
P:A
|: d/c/ | "G"B2{^c}d G2{^c}d | "C"cBA "D7"GFE | "Bm"D2{^A}B "C"E2{B}c | "G"BAG "D7"A2B |
"Am"cde "D7"ABc | "G"Bcd "C"edc | "G"B3 "Am"A3 {GFE} | "D7"DEF "G"G2 :|
V:2
%%MIDI program 73     Flute
%%MIDI control 10 127   Right speaker
|: B/A/ | G3 D3 | E3 EDC | B,3 C3 | D2E F2G |\
ABc FGA | GAB cBA | G3 A3 {GFE} | DEF G2 :|
V:1
P:B
z | "Em"{^d}e3 B3 | GFG E2F | "Em"G2A B2^c | "Bm"d2^c B3 |\
"Em"{^d}e3 B3 | GFG E2F | "A7"G2A B2^c | "D"d3- "D7"d3 |
V:2
z | B3 G3 | E3 B,2^D | E2F G3 | F2E =D3 |\
B3 G3 | E3 B,2^D | E2F G2E | DED CB,A, |
V:1
P:C
"G"{f}g3 "G7"=f3 | "C"e=fe "E7"ded | "Am"c2B "A7"A2G | "D"d3 "D7"DEF |\
"G"GAB "D7"cBA | "G"Bcd "C"edc | "G"B3 "Am"A3 {GFE} | "D7"DEF "G"G2 |]
V:2
G,3 B,3 | C3^G,3 | A,3 ^C3 | D6 |\
G3 F3 | GAB cBA | G3 A3 {GFE} | DEF G2 |]

